X: 13019
T: Finbar Dwyer's
R: reel
M: 4/4
K: Adorian
E2A,E EDB,E|DG,B,D ~G3D|~E2ED EDB,D|EB,DB, ~A,2B,D|
^CA,EA, G3D|EDEG DEGA|~B3G ~A3F|GEDB, A,3D:|
EAAE ABAG|E2DE GEAG|EAAB ~c3c|d2BG EGAB|
c2cB cBAc|BG~G2 eGdG|~E2DB, DG,B,D|1 EB,DB, A,3D:|2 EB,DB, A,4||

